!!!OTL: KunÅzi
!!!ARE: Asia, China, Shanxi Mianxian
!! I, 69
!!!SCT: C1403
!!!YEM: Copyright 1995, estate of Helmut Schaffrath.
**kern
*ICvox
*Ivox
*M2/4
*k[]
*C:
{8ee
8ee
4dd
=1
8.cc
16cc
4a}
=2
{16ee
8cc
16cc
8cc
8ee
=3
8cc
8cc
4a}
=4
{16cc
8a
16a
8cc
8cc
=5
8ee
8ee
4dd
=6
8.cc
16cc
4a}
=7
{16ee
8cc
16cc
8cc
8ee
=8
8cc
8ee
8cc
8cc
=9
8a
8a
4cc
=10
8cc
8a
4g}
==
!!!AGN: Xiaodiao. FunÅ ku
!!!ONB: ESAC (Essen Associative Code) Database: HUANG
!!!AMT: simple duple
!!!AIN: vox
!!!EED: Helmut Schaffrath
!!!EEV: 1.0
*-
